Sources/FrostedUI/Resources/Icons.xcassets/shieldHalf16.imageset/shield-half-16.svg

<svg width="16" height="16" viewBox="0 0 16 16" fill="none" xmlns="http://www.w3.org/2000/svg" data-fui-icon="true">
  <path
    fill-rule="evenodd"
    clip-rule="evenodd"
    d="M13.281 2.8035L8.44901 1.19251C8.16001 1.09451 7.841 1.09551 7.552 1.19251L2.71899 2.8035C2.13999 2.9965 1.75 3.53651 1.75 4.14751V7.9415C1.75 11.7545 5.019 13.5165 7.645 14.9315C7.755 14.9915 7.878 15.0215 8 15.0215C8.122 15.0215 8.245 14.9915 8.355 14.9315C10.981 13.5165 14.25 11.7545 14.25 7.9415V4.14751C14.25 3.53651 13.86 2.9965 13.281 2.8035ZM12.75 7.9415C12.75 10.5405 10.801 11.8895 8 13.4175V2.62351L12.75 4.2065V7.9415Z"
    fill="currentColor"
  />
</svg>

<svg xmlns="http://www.w3.org/2000/svg" width="16" height="16" fill="none" data-fui-icon="true" viewBox="0 0 16 16"><path fill="currentColor" fill-rule="evenodd" d="M13.281 2.804 8.449 1.193a1.4 1.4 0 0 0-.897 0l-4.833 1.61a1.415 1.415 0 0 0-.969 1.345v3.794c0 3.813 3.269 5.575 5.895 6.99a.74.74 0 0 0 .71 0c2.626-1.415 5.895-3.177 5.895-6.99V4.147c0-.611-.39-1.151-.969-1.344m-.531 5.138c0 2.598-1.949 3.948-4.75 5.476V2.624l4.75 1.583z" clip-rule="evenodd"/></svg>
